assets/images/icons/behance.svg

<svg width="25" height="24" viewBox="0 0 25 24" fill="none" xmlns="http://www.w3.org/2000/svg">
<g clip-path="url(#clip0_3_812)">
<path fill-rule="evenodd" clip-rule="evenodd" d="M10.0789 11.2801C10.5769 11.0295 10.9535 10.7505 11.2115 10.449C11.6705 9.90596 11.897 9.1859 11.897 8.29332C11.897 7.42475 11.6705 6.68219 11.2175 6.05964C10.4614 5.04556 9.18182 4.52651 7.37267 4.49951H0.205078V19.1302H6.88813C7.64119 19.1302 8.33875 19.0657 8.9838 18.9337C9.62885 18.8002 10.1869 18.5557 10.6594 18.1986C11.0795 17.8881 11.4305 17.5026 11.7095 17.048C12.1506 16.361 12.3711 15.5824 12.3711 14.7153C12.3711 13.8753 12.1776 13.1597 11.7935 12.5717C11.405 11.9836 10.835 11.5531 10.0789 11.2801ZM3.16182 7.04072H6.39009C7.09964 7.04072 7.68469 7.11723 8.14373 7.26874C8.67477 7.48926 8.9403 7.93779 8.9403 8.62185C8.9403 9.2354 8.73778 9.66444 8.33725 9.90596C7.93371 10.1475 7.41017 10.269 6.76812 10.269H3.16182V7.04072ZM8.26674 16.334C7.90971 16.5065 7.40717 16.592 6.76362 16.592H3.16182V12.6902H6.81312C7.44917 12.6947 7.94421 12.7787 8.29824 12.9362C8.92829 13.2212 9.24182 13.7433 9.24182 14.5068C9.24182 15.4069 8.91779 16.013 8.26674 16.334ZM21.899 5.18164H15.543V7.00279H21.899V5.18164ZM23.2295 10.1326C23.6826 10.7761 23.9736 11.5217 24.1056 12.3693C24.1836 12.8643 24.2136 13.5829 24.2016 14.5174H16.2105C16.2585 15.602 16.6365 16.3641 17.3595 16.7991C17.7976 17.0706 18.3226 17.2072 18.9422 17.2072C19.5932 17.2072 20.1243 17.0421 20.5323 16.7121C20.7573 16.5321 20.9538 16.2846 21.1234 15.9681H24.0516C23.9736 16.6086 23.6181 17.2612 22.9895 17.9242C22.0069 18.9743 20.6313 19.5008 18.8627 19.5008C17.4015 19.5008 16.1144 19.0583 14.9999 18.1702C13.8808 17.2837 13.3242 15.839 13.3242 13.8394C13.3242 11.9642 13.8283 10.5256 14.8348 9.52503C15.8444 8.52745 17.1495 8.02491 18.7562 8.02491C19.7132 8.02341 20.5728 8.19293 21.3364 8.53195C22.1029 8.86948 22.733 9.40352 23.2295 10.1326ZM17.0475 10.9757C16.6425 11.3882 16.3875 11.9462 16.2825 12.6498H21.2254C21.1729 11.8982 20.9163 11.3297 20.4618 10.9381C20.0013 10.5496 19.4357 10.3561 18.7592 10.3561C18.0256 10.3576 17.4526 10.5646 17.0475 10.9757Z" fill="white"/>
</g>
<defs>
<clipPath id="clip0_3_812">
<rect width="24" height="24" fill="white" transform="translate(0.205078)"/>
</clipPath>
</defs>
</svg>

<svg width="25" height="24" fill="none" xmlns="http://www.w3.org/2000/svg"><g clip-path="url(#a)"><path fill-rule="evenodd" clip-rule="evenodd" d="M10.079 11.28c.498-.25.874-.53 1.132-.831.46-.543.686-1.263.686-2.156 0-.868-.226-1.61-.68-2.233-.756-1.014-2.035-1.533-3.844-1.56H.205v14.63h6.683c.753 0 1.45-.064 2.096-.196a4.12 4.12 0 0 0 1.675-.735c.42-.31.771-.696 1.05-1.151.442-.687.662-1.466.662-2.333 0-.84-.193-1.555-.578-2.143-.388-.588-.958-1.019-1.714-1.292zM3.162 7.04H6.39c.71 0 1.295.077 1.754.229.53.22.796.669.796 1.353 0 .613-.202 1.042-.603 1.284-.403.242-.927.363-1.569.363H3.162V7.041zm5.105 9.294c-.357.172-.86.258-1.503.258H3.162V12.69h3.651c.636.005 1.131.089 1.485.246.63.285.944.807.944 1.57 0 .9-.324 1.507-.975 1.828zM21.899 5.182h-6.356v1.82h6.356v-1.82zm1.33 4.95c.454.644.745 1.39.877 2.237.078.495.108 1.214.096 2.148H16.21c.049 1.085.427 1.847 1.15 2.282.438.272.963.408 1.582.408.651 0 1.182-.165 1.59-.495.225-.18.422-.427.591-.744h2.929c-.078.64-.434 1.293-1.063 1.956-.982 1.05-2.358 1.577-4.126 1.577-1.462 0-2.749-.443-3.863-1.33-1.12-.887-1.676-2.332-1.676-4.332 0-1.875.504-3.313 1.51-4.314 1.01-.998 2.316-1.5 3.922-1.5.957-.002 1.817.168 2.58.507.767.337 1.397.872 1.894 1.6zm-6.181.844c-.405.412-.66.97-.765 1.674h4.942c-.052-.752-.309-1.32-.763-1.712-.46-.388-1.026-.582-1.703-.582-.733.002-1.306.209-1.712.62z" fill="#fff"/></g><defs><clipPath id="a"><path fill="#fff" transform="translate(.205)" d="M0 0h24v24H0z"/></clipPath></defs></svg>
